X: 156
T: Laodong muofan Anbu qima
L: 1/8
M: 2/4
K: C
E3A [I:setbarnb 1]| 
GE2d | 
A4 | 
dc2e | 
A3c | 
A GE2 | 
AG2e | 
A4 | 
A G E A | 
GE2C | 
D2E2 | 
A4 | 
D2C A, | 
D GE2 | 
CA,3- | 
A,4 |]

@@@ Tune index: 8824
